LibreOffice_Breeze/breeze/cmd/sc_connector.svg

<?xml version="1.0" encoding="UTF-8" standalone="no"?>
<!-- Created with Inkscape (http://www.inkscape.org/) -->

<svg
   xmlns:dc="http://purl.org/dc/elements/1.1/"
   xmlns:cc="http://creativecommons.org/ns#"
   xmlns:rdf="http://www.w3.org/1999/02/22-rdf-syntax-ns#"
   xmlns:svg="http://www.w3.org/2000/svg"
   xmlns="http://www.w3.org/2000/svg"
   xmlns:sodipodi="http://sodipodi.sourceforge.net/DTD/sodipodi-0.dtd"
   xmlns:inkscape="http://www.inkscape.org/namespaces/inkscape"
   width="16"
   height="16"
   id="svg3049"
   version="1.1"
   inkscape:version="0.48.4 r9939"
   sodipodi:docname="sc_connector.svg"
   inkscape:export-filename="/home/uri/.kde/share/icons/NITRUX-KDE/16x16/actions/view-right-new.png"
   inkscape:export-xdpi="30"
   inkscape:export-ydpi="30">
  <defs
     id="defs3051" />
  <sodipodi:namedview
     id="base"
     pagecolor="#ffffff"
     bordercolor="#666666"
     borderopacity="1.0"
     inkscape:pageopacity="0.0"
     inkscape:pageshadow="2"
     inkscape:zoom="48.822612"
     inkscape:cx="8.5011096"
     inkscape:cy="9.0230675"
     inkscape:document-units="px"
     inkscape:current-layer="layer1"
     showgrid="true"
     fit-margin-top="0"
     fit-margin-left="0"
     fit-margin-right="0"
     fit-margin-bottom="0"
     inkscape:window-width="1407"
     inkscape:window-height="1053"
     inkscape:window-x="509"
     inkscape:window-y="0"
     inkscape:window-maximized="0"
     inkscape:showpageshadow="false"
     borderlayer="true"
     inkscape:snap-bbox="true"
     inkscape:snap-global="true">
    <inkscape:grid
       type="xygrid"
       id="grid4085" />
    <sodipodi:guide
       position="2,15"
       orientation="12,0"
       id="guide4075" />
    <sodipodi:guide
       position="17,2"
       orientation="0,12"
       id="guide4077" />
    <sodipodi:guide
       position="14,13"
       orientation="-12,0"
       id="guide4079" />
    <sodipodi:guide
       position="0,14"
       orientation="0,-12"
       id="guide4081" />
  </sodipodi:namedview>
  <metadata
     id="metadata3054">
    <rdf:RDF>
      <cc:Work
         rdf:about="">
        <dc:format>image/svg+xml</dc:format>
        <dc:type
           rdf:resource="http://purl.org/dc/dcmitype/StillImage" />
        <dc:title />
      </cc:Work>
    </rdf:RDF>
  </metadata>
  <g
     inkscape:label="Capa 1"
     inkscape:groupmode="layer"
     id="layer1"
     transform="translate(-421.71429,-531.79074)">
    <g
       transform="translate(-38.260002,-6.3485488)"
       id="layer1-0"
       inkscape:label="Capa 1" />
    <path
       style="fill:#4d4d4d;fill-opacity:1;stroke:none"
       d="M 3.5,2 C 2.67157,2 2,2.67155 2,3.5 2,4.32845 2.67157,5 3.5,5 4.15584,5 4.70241,4.58642 4.90625,4 L 7,4 l 0,8 0,1 1.5,0 2.5,0 0.09375,0 c 0.20384,0.586412 0.750412,1 1.40625,1 0.828427,0 1.5,-0.671573 1.5,-1.5 0,-0.828427 -0.671573,-1.5 -1.5,-1.5 -0.655838,0 -1.20241,0.413588 -1.40625,1 L 11,12 8,12 8,3 8,3 7.5,3 4.90625,3 C 4.70241,2.41358 4.15584,2 3.5,2 z m 0,1 C 3.77614,3 4,3.22385 4,3.5 4,3.77615 3.77614,4 3.5,4 3.22386,4 3,3.77615 3,3.5 3,3.22385 3.22386,3 3.5,3 z m 9,9 C 12.776142,12 13,12.223858 13,12.5 13,12.776142 12.776142,13 12.5,13 12.223858,13 12,12.776142 12,12.5 12,12.223858 12.223858,12 12.5,12 z"
       transform="translate(421.71429,531.79074)"
       id="path4197-8-1"
       inkscape:connector-curvature="0"
       sodipodi:nodetypes="ssscccccccssscccccccsssssssssss" />
  </g>
</svg>

<?xml version="1.0" encoding="UTF-8" standalone="no"?>
<!-- Created with Inkscape (http://www.inkscape.org/) -->

<svg
   xmlns:dc="http://purl.org/dc/elements/1.1/"
   xmlns:cc="http://creativecommons.org/ns#"
   xmlns:rdf="http://www.w3.org/1999/02/22-rdf-syntax-ns#"
   xmlns:svg="http://www.w3.org/2000/svg"
   xmlns="http://www.w3.org/2000/svg"
   xmlns:sodipodi="http://sodipodi.sourceforge.net/DTD/sodipodi-0.dtd"
   xmlns:inkscape="http://www.inkscape.org/namespaces/inkscape"
   width="16"
   height="16"
   id="svg3049"
   version="1.1"
   inkscape:version="0.48.4 r9939"
   sodipodi:docname="sc_chainframes.svg"
   inkscape:export-filename="/home/uri/.kde/share/icons/NITRUX-KDE/16x16/actions/view-right-new.png"
   inkscape:export-xdpi="30"
   inkscape:export-ydpi="30">
  <defs
     id="defs3051" />
  <sodipodi:namedview
     id="base"
     pagecolor="#ffffff"
     bordercolor="#666666"
     borderopacity="1.0"
     inkscape:pageopacity="0.0"
     inkscape:pageshadow="2"
     inkscape:zoom="34.5228"
     inkscape:cx="7.9909688"
     inkscape:cy="9.9169566"
     inkscape:document-units="px"
     inkscape:current-layer="layer1"
     showgrid="true"
     fit-margin-top="0"
     fit-margin-left="0"
     fit-margin-right="0"
     fit-margin-bottom="0"
     inkscape:window-width="1407"
     inkscape:window-height="1053"
     inkscape:window-x="511"
     inkscape:window-y="0"
     inkscape:window-maximized="0"
     inkscape:showpageshadow="false"
     borderlayer="true"
     inkscape:snap-bbox="true"
     inkscape:snap-global="true">
    <inkscape:grid
       type="xygrid"
       id="grid4085" />
    <sodipodi:guide
       position="2,15"
       orientation="12,0"
       id="guide4075" />
    <sodipodi:guide
       position="17,2"
       orientation="0,12"
       id="guide4077" />
    <sodipodi:guide
       position="14,13"
       orientation="-12,0"
       id="guide4079" />
    <sodipodi:guide
       position="0,14"
       orientation="0,-12"
       id="guide4081" />
  </sodipodi:namedview>
  <metadata
     id="metadata3054">
    <rdf:RDF>
      <cc:Work
         rdf:about="">
        <dc:format>image/svg+xml</dc:format>
        <dc:type
           rdf:resource="http://purl.org/dc/dcmitype/StillImage" />
        <dc:title></dc:title>
      </cc:Work>
    </rdf:RDF>
  </metadata>
  <g
     inkscape:label="Capa 1"
     inkscape:groupmode="layer"
     id="layer1"
     transform="translate(-421.71429,-531.79074)">
    <g
       transform="translate(-38.260002,-6.3485488)"
       id="layer1-0"
       inkscape:label="Capa 1" />
    <path
       style="fill:#4d4d4d;fill-opacity:1;stroke:none"
       d="M 3.5 2 C 2.67157 2 2 2.67155 2 3.5 C 2 4.32845 2.67157 5 3.5 5 C 4.15584 5 4.70241 4.58642 4.90625 4 L 7.5 4 L 7.5 12 L 7.5 13 L 8.5 13 L 11 13 L 11.09375 13 C 11.29759 13.586412 11.844162 14 12.5 14 C 13.328427 14 14 13.328427 14 12.5 C 14 11.671573 13.328427 11 12.5 11 C 11.844162 11 11.29759 11.413588 11.09375 12 L 11 12 L 8.5 12 L 8.5 3 L 8 3 L 7.5 3 L 4.90625 3 C 4.70241 2.41358 4.15584 2 3.5 2 z M 3.5 3 C 3.77614 3 4 3.22385 4 3.5 C 4 3.77615 3.77614 4 3.5 4 C 3.22386 4 3 3.77615 3 3.5 C 3 3.22385 3.22386 3 3.5 3 z M 12.5 12 C 12.776142 12 13 12.223858 13 12.5 C 13 12.776142 12.776142 13 12.5 13 C 12.223858 13 12 12.776142 12 12.5 C 12 12.223858 12.223858 12 12.5 12 z "
       transform="translate(421.71429,531.79074)"
       id="path4197-8-1" />
  </g>
</svg>
